static/img/logos/main-23.svg

<svg xmlns="http://www.w3.org/2000/svg" width="1470" height="1576" fill="none"><path fill="#6EFEEB" d="m192 1115 250 280v-280zM800 1395l159.843-280H800zM442 1115h358v280H442zM1256 191h-66v1385l280-250V421z"/><path fill="#2C41DB" d="m1256 191 214 230h-214z"/><path fill="#2C41DB" fill-rule="evenodd" d="M383 0h89v1115H337v-17.95h-10V1115H192V140zm-56 140v19.954h10V140zm10 49.832h-10v39.908h10zm0 69.785h-10v39.909h10zm0 69.786h-10v39.908h10zm0 69.786h-10v39.908h10zm0 69.785h-10v39.909h10zm0 69.786h-10v39.908h10zm0 69.786h-10v39.908h10zm0 69.786h-10v39.908h10zm0 69.785h-10v39.909h10zm0 69.786h-10v39.908h10zm0 69.786h-10v39.908h10zm0 69.786h-10v39.908h10zm0 69.785h-10v39.91h10z" clip-rule="evenodd"/><path fill="#6EFEEB" d="M192 140 383 0v140z"/><path fill="#2C41DB" d="m952.5 677.5-265 265h265zM680 957.5V1115h280V957.5zM967.5 950H1190V670H967.5z"/><path fill="#2C41DB" fill-rule="evenodd" d="M1182.04 1296H911.787l-85.147 149.15h-84.089l84.133 126.75 14.77-11.47 6.133 7.9-9.883 7.67H1190v-273.52l-12.35 9.59-6.14-7.9zm-25.88 32.76-6.13-7.9-29.94 23.24 6.13 7.9zm-51.43 39.92-6.13-7.89-29.94 23.24 6.13 7.9zm-51.43 39.93-6.13-7.9-29.94 23.25 6.13 7.9zm-51.43 39.93-6.13-7.9-29.94 23.25 6.133 7.9zm-51.426 39.93-6.133-7.9-29.939 23.25 6.132 7.89zm-51.429 39.93-6.132-7.9-29.94 23.24 6.133 7.9z" clip-rule="evenodd"/><path fill="#6EFEEB" d="M0 285h800v280H0z"/></svg>

<svg width="1470" height="1576" viewBox="0 0 1470 1576" fill="none" xmlns="http://www.w3.org/2000/svg">
    <path d="M192 1115L442 1395V1115H192Z" fill="#6EFEEB"/>
    <path d="M800 1395L959.843 1115H800V1395Z" fill="#6EFEEB"/>
    <path d="M442 1115H800V1395H442V1115Z" fill="#6EFEEB"/>
    <path d="M1256 191H1190V1576L1470 1326V421L1256 191Z" fill="#6EFEEB"/>
    <path d="M1256 191L1470 421H1256V191Z" fill="#2C41DB"/>
    <path fill-rule="evenodd" clip-rule="evenodd" d="M383 0H472V1115H337V1097.05H327V1115H192V140L383 0ZM327 140V159.954H337V140H327ZM337 189.832H327V229.74H337V189.832ZM337 259.617H327V299.526H337V259.617ZM337 329.403H327V369.311H337V329.403ZM337 399.189H327V439.097H337V399.189ZM337 468.974H327V508.883H337V468.974ZM337 538.76H327V578.668H337V538.76ZM337 608.546H327V648.454H337V608.546ZM337 678.332H327V718.24H337V678.332ZM337 748.117H327V788.026H337V748.117ZM337 817.903H327V857.811H337V817.903ZM337 887.689H327V927.597H337V887.689ZM337 957.475H327V997.383H337V957.475ZM337 1027.26H327V1067.17H337V1027.26Z" fill="#2C41DB"/>
    <path d="M192 140L383 0V140H192Z" fill="#6EFEEB"/>
    <path d="M952.5 677.5L687.5 942.5H952.5V677.5Z" fill="#2C41DB"/>
    <path d="M680 957.5V1115H960L960 957.5H680Z" fill="#2C41DB"/>
    <path d="M967.5 950H1190V670L967.5 670V950Z" fill="#2C41DB"/>
    <path fill-rule="evenodd" clip-rule="evenodd" d="M1182.04 1296H911.787L826.64 1445.15L742.551 1445.15L826.684 1571.9L841.454 1560.43L847.587 1568.33L837.704 1576H1190V1302.48L1177.65 1312.07L1171.51 1304.17L1182.04 1296ZM1156.16 1328.76L1150.03 1320.86L1120.09 1344.1L1126.22 1352L1156.16 1328.76ZM1104.73 1368.68L1098.6 1360.79L1068.66 1384.03L1074.79 1391.93L1104.73 1368.68ZM1053.3 1408.61L1047.17 1400.71L1017.23 1423.96L1023.36 1431.86L1053.3 1408.61ZM1001.87 1448.54L995.74 1440.64L965.8 1463.89L971.933 1471.79L1001.87 1448.54ZM950.444 1488.47L944.311 1480.57L914.372 1503.82L920.504 1511.71L950.444 1488.47ZM899.015 1528.4L892.883 1520.5L862.943 1543.74L869.076 1551.64L899.015 1528.4Z" fill="#2C41DB"/>
    <rect y="285" width="800" height="280" fill="#6EFEEB"/>
</svg>
